X: 0831
T: KINLOCH OF KINLOCH
B: Oliver Ditson "The Boston Collection of Instrumental Music" 1910 p.83 #1
F: http://conquest.imslp.info/files/imglnks/usimg/8/8f/IMSLP175643-PMLP309456-bostoncollection00bost_bw.pdf
%: 2012 John Chambers <jc:trillian.mit.edu>
M: 6/8
L: 1/8
K: C
c |\
e>dc G<EG | A<FA G<EG | e>dc GEG | A2Bc2d |\
e>dc GEG | A<FA GEG | e>dc A<fe | dcB c2 :|
|: g |\
e2g d2g | cBc B2g | e2g d2g | ^fef g2g |\
a2a g2g | f2f e2c/d/ | e>dc A<fa | g2B c2 :|

%%sep 1 1 500
%%sep 1 1 500
